resources/haticons/SVG/foundation.svg

<!-- Generated by IcoMoon.io -->
<svg version="1.1" xmlns="http://www.w3.org/2000/svg" width="24" height="24" viewBox="0 0 24 24">
<title>foundation</title>
<path d="M18.984 12h3l-9.984-9-9.984 9h3v3h-2.016v2.016h2.016v3h1.969v-3h4.031v3h1.969v-3h4.031v3h1.969v-3h2.016v-2.016h-2.016v-3zM6.984 15v-4.828l4.031-3.563v8.391h-4.031zM12.984 15v-8.391l4.031 3.563v4.828h-4.031z"></path>
</svg>

<svg xmlns="http://www.w3.org/2000/svg" width="24" height="24"><path d="M18.984 12h3L12 3l-9.984 9h3v3H3v2.016h2.016v3h1.969v-3h4.031v3h1.969v-3h4.031v3h1.969v-3h2.016V15h-2.016v-3zm-12 3v-4.828l4.031-3.563V15H6.984zm6 0V6.609l4.031 3.563V15h-4.031z"/></svg>
